Damo.Io.Blog/resources/favicon.svg

<svg xmlns="http://www.w3.org/2000/svg" enable-background="new 0 0 24 24" height="24px" viewBox="0 0 24 24" width="24px"
     fill="#000000">
    <style>
        path {
            fill: #141D2A;
        }
        @media (prefers-color-scheme: dark) {
            path {
                fill: #ffffff;
            }
        }
    </style>
    
    <rect fill="none" height="24" width="24"/>
    <path d="M20,4H4C2.89,4,2,4.9,2,6v12c0,1.1,0.89,2,2,2h16c1.1,0,2-0.9,2-2V6C22,4.9,21.11,4,20,4z M20,18H4V8h16V18z M18,17h-6v-2 h6V17z M7.5,17l-1.41-1.41L8.67,13l-2.59-2.59L7.5,9l4,4L7.5,17z"/>
</svg>

<svg xmlns="http://www.w3.org/2000/svg" enable-background="new 0 0 24 24" height="24px" viewBox="0 0 24 24" width="24px"
     fill="#000000">
    <style>
        rect, path {
            fill: #444;
        }
        @media (prefers-color-scheme: dark) {
            rect, path {
                fill: #ddd;
            }
        }
    </style>

    <rect id="Cursor" x="12" y="15" width="6" height="2">
        <animate
                attributeType="CSS"
                attributeName="opacity"
                from="1"
                to="0"
                dur="0.8s"
                repeatCount="indefinite"
        />
    </rect>
    <path id="Terminal-with-prompt" d="M20,4L4,4C2.89,4 2,4.9 2,6L2,18C2,19.1 2.89,20 4,20L20,20C21.1,20 22,19.1 22,18L22,6C22,4.9 21.11,4 20,4ZM20,18L4,18L4,8L20,8L20,18ZM7.5,17L6.09,15.59L8.67,13L6.08,10.41L7.5,9L11.5,13L7.5,17Z" />
</svg>
